X: 20213
T: LORD CORNWALLIS'S MARCH
C:
%R: march
B: Elias Howe "The Musician's Companion" 1843 p.21 #3
S: http://imslp.org/wiki/The_Musician's_Companion_(Howe,_Elias)
Z: 2015 John Chambers <jc:trillian.mit.edu>
M: C
L: 1/8
K: D
% - - - - - - - - - - - - - - - - - - - - - - - - -
A2 |\
d2 d>d e2 e>e | a3 g f2 A2 | B2 Bc (ed).c.B | B>A A>A A2 a>f |\
g2 e>e e2 g>e | a2 f2 ff A2 | Begb f2 e2 | d2 d>d d2 :|
|: A2 |\
e2 e>e f2 f>f | a3 g (gf) (ed) | e2 e>e (bg).e.d | c2 e>e eABc |\
d3 c (cB) (BA) | B3 A (AG) (GF) | Bege d2 c2 | d2 d>d d2 :|
% - - - - - - - - - - - - - - - - - - - - - - - - -

%%sep 1 1 500

